src/icons/documents/uF16E-doc-ae.svg

<svg xmlns="http://www.w3.org/2000/svg" viewBox="0 0 832 1024"><path d="M262.01758,695.168H363.77832L381.44238,752h62.59277L346.88184,476.28613H280.44922L182.14453,752h60.67285Zm50.68848-156.67383h.76758l34.17676,109.05664H277.37793Z"/><path d="M554.624,757.376c34.94434,0,75.64844-16.12793,89.85645-65.28027h-55.2959c-4.22461,14.5918-19.584,22.27246-34.56055,22.27246-43.39258,0-46.46387-34.56055-48-49.9209H646.78516v-9.59961c0-93.3125-55.68066-112.5127-96.001-112.5127-89.47266,0-97.9209,78.71973-97.9209,103.2959C452.86328,729.72754,497.02344,757.376,554.624,757.376Zm-4.6084-170.88086c17.28027,0,38.40039,9.9834,41.47266,43.00781H508.16016C511.23145,602.623,524.67188,586.49512,550.01563,586.49512Z"/><path d="M64,1024H768a64,64,0,0,0,64-64V258.74512L573.25488,0H64A64,64,0,0,0,0,64V960A64,64,0,0,0,64,1024ZM560,77.25488,754.74512,272H624a64,64,0,0,1-64-64ZM64,64.00024V64H496V208A128.14493,128.14493,0,0,0,624,336H768V960H64Z"/></svg>

<svg xmlns="http://www.w3.org/2000/svg" viewBox="0 0 832 1024" role="img"><path d="M262.018 695.168h101.76L381.442 752h62.593l-97.153-275.714h-66.433L182.145 752h60.672zm50.688-156.674h.768l34.176 109.057h-70.272zm241.918 218.882c34.944 0 75.648-16.128 89.856-65.28h-55.295c-4.225 14.592-19.584 22.272-34.561 22.272-43.393 0-46.464-34.56-48-49.92h140.161v-9.6c0-93.313-55.68-112.513-96-112.513-89.473 0-97.922 78.72-97.922 103.296 0 84.097 44.16 111.745 101.761 111.745zm-4.608-170.88c17.28 0 38.4 9.983 41.472 43.007H508.16c3.071-26.88 16.512-43.008 41.856-43.008z"/><path d="M64 1024h704a64 64 0 0064-64V258.745L573.255 0H64A64 64 0 000 64v896a64 64 0 0064 64zM560 77.255L754.745 272H624a64 64 0 01-64-64zM64 64h432v144a128.145 128.145 0 00128 128h144v624H64z"/></svg>
